!!!COM: Schiørring, Niels
!!!CDT: 1743-1798
!!!OPR@@DA: Choral-Bog
!!!ONM: 35
!!!OTL@@DA: Hvad min Gud vil, ſkee mig altiid
**kern	**fb	**kern	**kern	**kern	**kern	**kern	**kern	**kern
*part6	*part6	*part6	*part5	*part5	*part4	*part3	*part2	*part1
*staff8	*	*staff7	*staff6	*staff5	*staff4	*staff3	*staff2	*staff1
*clefF4	*	*clefC1	*clefF4	*clefC1	*clefF4	*clefC4	*clefC3	*clefC1
*k[]	*	*k[]	*k[]	*k[]	*k[]	*k[]	*k[]	*k[]
*M4/4	*	*M4/4	*M4/4	*M4/4	*M4/4	*M4/4	*M4/4	*M4/4
*met(c)	*	*met(c)	*met(c)	*met(c)	*met(c)	*met(c)	*met(c)	*met(c)
*MM180	*	*MM180	*MM180	*MM180	*MM180	*MM180	*MM180	*MM180
*	*	*	*^	*^	*^	*	*	*
2AA	.	2e	2ryy	2AA	2A	2c	2A	2AA	2c	2c	2e
=1	=1	=1	=1	=1	=1	=1	=1	=1	=1	=1	=1
2GG	6 -	2g	1ryy	2GG	2B-X	2e	2G	2GG	2B-X	2e	2g
2FF	.	2a	.	2FF	2c	[2f	2F	2FF	2A	[2f	2a
*	*	*	*	*	*	*	*v	*v	*	*	*
=2	=2	=2	=2	=2	=2	=2	=2	=2	=2	=2
2C	4	2g	2ryy	2C	2c	4f]	2C	2c	(4f]	2g
2E	6	2cc	2c	2E	2cc	2g	2E	2c	2g	2cc
=3	=3	=3	=3	=3	=3	=3	=3	=3	=3	=3
2F	6	2dd	2A	2F	2dd	2f	2F	2A	2a	2dd
2G	.	2b	2G	2G	2b	2d	2G	2d	2g	2b
=4	=4	=4	=4	=4	=4	=4	=4	=4	=4	=4
2C	.	2cc	2G	2C	2cc	2e	2C	2e	2g	2cc
2AA	.	2cc	2ryy	2AA	2e	2a	2AA	2e	2a	2cc
=5	=5	=5	=5	=5	=5	=5	=5	=5	=5	=5
2D	4	2b	1ryy	2D	2e	2g#X	2D	2e	2g#X	2b
2C	6	2cc	.	2C	2e	[2a	2C	2e	[2a	2cc
=6	=6	=6	=6	=6	=6	=6	=6	=6	=6	=6
2BB	7	2dd	2ryy	2BB	2f	2a]	2BB	2d	2a]	2dd
2E	8 #	2b	4e	2E	2b	2g#X	2E	(4e	2g#X	2b
=7	=7	=7	=7	=7	=7	=7	=7	=7	=7	=7
4F	6 5	(2a	4c	4F	2a	4a	(4F	(4c	(4a	(2a
4D	.	.	2B	4D	.	4f	4D	2B	4f	.
2E	#	2g#X)	.	2E	2g#X	2e	2E)	.	2e)	2g#X)
.	.	.	4d	.	.	.	.	4B)	.	.
=	=	=	=	=	=	=	=	=	=	=
2AA	.	2a	2ryy	2AA	2c	2e	2AA	2c	2e	2a
=8:|!	=8:|!	=8:|!	=8:|!	=8:|!	=8:|!	=8:|!	=8:|!	=8:|!	=8:|!	=8:|!
2D	#	2a	2ryy	2D	2d	2f#X	2D	2d	2f#X	2a
=9	=9	=9	=9	=9	=9	=9	=9	=9	=9	=9
2C#X	5	2a	1ryy	2C#X	2e	2g	2C#X	2e	2g	2a
2D	#	2a	.	2D	2d	2f#X	2D	2d	2f#X	2a
=10	=10	=10	=10	=10	=10	=10	=10	=10	=10	=10
2GG	.	2b	1ryy	2GG	2d	2g	2GG	2d	2g	2b
2AA	6	2a	.	2AA	2cni	2f#X	2AA	2c	2f#X	2a
=11	=11	=11	=11	=11	=11	=11	=11	=11	=11	=11
4BB	6	2g	2B	4BB	2g	2d	(4BB	2B	2d	2g
4C	.	.	.	4C	.	.	4C)	.	.	.
2D	#	2f#X	2A	2D	2f#X	2d	2D	2A	2d	2f#X
=12	=12	=12	=12	=12	=12	=12	=12	=12	=12	=12
*	*	*	*	*	*	*^	*	*	*	*
2GG	.	2g	2G	2GG	2g	2B	2d/	2GG	2B	2d	2g
*	*	*	*	*	*	*v	*v	*	*	*	*
[2C	.	2e	2G	[2C	2e	2c	[2C	2G	2e	2e
=13	=13	=13	=13	=13	=13	=13	=13	=13	=13	=13
2C]	6	2a	2A	2C]	2a	2e	2C]	2c	2e	2a
2BB	6	2b	2G#X	2BB	2b	2d	2BB	2d	2g#X	2b
=14	=14	=14	=14	=14	=14	=14	=14	=14	=14	=14
*	*	*	*	*	*	*^	*	*	*	*
2AA	.	2cc	2A	2AA	2cc	2c	2e/	2AA	2e	2a	2cc
2BB	nr6	2b	[2Gni	2BB	2b	2d	2gni/	2BB	2d	[2gni	2b
*	*	*	*	*	*	*v	*v	*	*	*	*
=15	=15	=15	=15	=15	=15	=15	=15	=15	=15	=15
2C	6 5	1a	2G]	2C	1a	2e	(2C	(2e	(2g]	1a
2D	#	.	2F#X	2D	.	2d	2D)	2d)	2f#X)	.
=16	=16	=16	=16	=16	=16	=16	=16	=16	=16	=16
2GG	.	2b	2G	2GG	2b	2d	2GG	2B	2d	2b
2C	.	2e	2G	2C	2e	2c	2C	2G	2c	2e
=17	=17	=17	=17	=17	=17	=17	=17	=17	=17	=17
2BB	6	2g	2G	2BB	2g	2d	2BB	2G	2d	2g
4AA	.	2a	4ryy	4AA	4c	4e	(4AA	(4c	(4e	2a
4BB	7 #	.	4ryy	4BB	4B	4d#X	4BB)	4B)	4d#X)	.
=18	=18	=18	=18	=18	=18	=18	=18	=18	=18	=18
2E	.	2g	2B	2E	2g	2e	2E	2B	2e	2g
2E	6	2cc	[2c	2E	2cc	2g	2E	[2c	2g	2cc
=19	=19	=19	=19	=19	=19	=19	=19	=19	=19	=19
2F	6 5	2a	2c]	2F	2a	2d	2F	2c]	2d	2a
2G	.	2b	2B	2G	2b	2d	2G	2B	2d	2b
=20	=20	=20	=20	=20	=20	=20	=20	=20	=20	=20
2C	.	2cc	2G	2C	2cc	2e	2C	2G	2e	2cc
*	*	*	*	*	*	*	*^	*	*	*
2FF#X	5	2cc	2ryy	2FF#X	2d	2a	2F#X	2FF#X	2d	2a	2cc
=21	=21	=21	=21	=21	=21	=21	=21	=21	=21	=21	=21
2GG	.	2b	1ryy	2GG	2d	2g	2G	2GG	2d	2g	2b
*	*	*	*	*	*	*	*v	*v	*	*	*
2E	6	2cc	.	2E	2e	2g	2E	2e	2g	2cc
=22	=22	=22	=22	=22	=22	=22	=22	=22	=22	=22
2D	.	2dd	2ryy	2D	2f	2a	2D	2f	2a	2dd
2E	8 #	2b	4e	2E	2b	2g#X	2E	(4e	2g#X	2b
=23	=23	=23	=23	=23	=23	=23	=23	=23	=23	=23
4F	7	(2a	4c	4F	2a	4a	(4F	(4c	(4a	(2a
4D	6 5	.	2B	4D	.	4f	4D	2B	4f	.
2E	#	2g#X)	.	2E	2g#X	2e	2E)	.	2e)	2g#X)
.	.	.	4B	.	.	.	.	4B)	.	.
=24	=24	=24	=24	=24	=24	=24	=24	=24	=24	=24
2AA	.	2a	2ryy	2AA	2c	2e	2AA	2c	2e	2a
*	*	*	*v	*v	*	*	*	*	*	*
*	*	*	*	*v	*v	*	*	*	*
==	==	==	==	==	==	==	==	==
*-	*-	*-	*-	*-	*-	*-	*-	*-
!!!system-decoration: {(s1,s2,s3,s4)}{(s5,s6)}{(s7,s8)}
!!!RDF**kern: i = editorial accidental
!!!RDF**kern: > = above
!!!RDF**kern: < = below
!!!AGN: chorale
!!!EED: Derek Remeš
!!!EED2: Victor Phan
!!!END: 2023/11/28
!!!ENC: Wolfgang Drescher
!!!EEV: 2023/11/29
!!!title: @{ONM}. @{OTL}